default/images/icon/email-alt.svg

<svg xmlns="http://www.w3.org/2000/svg" viewBox="0 0 20 20"><rect x="0" fill="none" width="20" height="20"/><g><path d="M19 14.5v-9c0-.83-.67-1.5-1.5-1.5H3.49c-.83 0-1.5.67-1.5 1.5v9c0 .83.67 1.5 1.5 1.5H17.5c.83 0 1.5-.67 1.5-1.5zm-1.31-9.11c.33.33.15.67-.03.84L13.6 9.95l3.9 4.06c.12.14.2.36.06.51-.13.16-.43.15-.56.05l-4.37-3.73-2.14 1.95-2.13-1.95-4.37 3.73c-.13.1-.43.11-.56-.05-.14-.15-.06-.37.06-.51l3.9-4.06-4.06-3.72c-.18-.17-.36-.51-.03-.84s.67-.17.95.07l6.24 5.04 6.25-5.04c.28-.24.62-.4.95-.07z"/></g></svg>

<?xml version="1.0" encoding="utf-8"?>
<!-- Generator: Adobe Illustrator 24.3.0, SVG Export Plug-In . SVG Version: 6.00 Build 0)  -->
<svg version="1.1" id="レイヤー_1" xmlns="http://www.w3.org/2000/svg" xmlns:xlink="http://www.w3.org/1999/xlink" x="0px"
	 y="0px" viewBox="0 0 20 20" style="enable-background:new 0 0 20 20;" xml:space="preserve">
<style type="text/css">
	.st0{fill:none;}
	.st1{fill:#FFFFFF;}
</style>
<rect class="st0" width="20" height="20"/>
<g>
	<path class="st1" d="M19,14.5v-9C19,4.7,18.3,4,17.5,4h-14C2.7,4,2,4.7,2,5.5v9C2,15.3,2.7,16,3.5,16h14C18.3,16,19,15.3,19,14.5z
		 M17.7,5.4c0.3,0.3,0.1,0.7,0,0.8l-4.1,3.7l3.9,4.1c0.1,0.1,0.2,0.4,0.1,0.5c-0.1,0.2-0.4,0.1-0.6,0.1l-4.4-3.7l-2.1,1.9l-2.1-1.9
		L4,14.6c-0.1,0.1-0.4,0.1-0.6-0.1c-0.1-0.1-0.1-0.4,0.1-0.5l3.9-4.1L3.3,6.2C3.1,6.1,3,5.7,3.3,5.4s0.7-0.2,1,0.1l6.2,5l6.2-5
		C17,5.2,17.4,5.1,17.7,5.4z"/>
</g>
</svg>
